X:312
T:High Road to Fort Augustus
R:Reel
B:The Athole Collection
M:C|
L:1/8
K:B Minor
F|CFF^G A2AF|A,>A, E2 C<A, A,>E|CFF^G A2Ac|AFEC B,/B,/B, F:|
BFBc dBFd|cAeA cAAc|BFBc dBFd|caec B/B/B f2|def^g agfa|
efde cAAa|fdec dBcA|FAEC B,/B,/B, F||

